X:332
T:Sportsman's Hornpipe
R:hp 32
C:Trad. ed. Barry Callaghan
S:'Hard Core English' page 24C
O:England
B:Hard Core English ISBN 978 085418 201 5
Z:PJHeadford 2008
M:2/2
L:1/8
Q:1/4=140
K:Ador
|:c2cc B2BA|GABc dBAG|c2cc B2BA|E2A2 A4|
c2cc B2BA|GABc dBAG|gfge dBAG|E2A2 A4:|
|:ABcd efge|afdf edcB|ABcd efge|afdf e3e|
a2af g2ge|c2ce dBG2|cBcA BABG|E2A2 A4:|]
W:This from Kershaw.

